svgs/thin/list-tree.svg

<svg xmlns="http://www.w3.org/2000/svg" viewBox="0 0 512 512"><!--! Font Awesome Pro 6.6.0 by @fontawesome - https://fontawesome.com License - https://fontawesome.com/license (Commercial License) Copyright 2024 Fonticons, Inc. --><path d="M24 64c-4.4 0-8 3.6-8 8l0 48c0 4.4 3.6 8 8 8l16 0 16 0 16 0c4.4 0 8-3.6 8-8l0-48c0-4.4-3.6-8-8-8L24 64zm16 80l-16 0c-13.3 0-24-10.7-24-24L0 72C0 58.7 10.7 48 24 48l48 0c13.3 0 24 10.7 24 24l0 48c0 13.3-10.7 24-24 24l-16 0 0 112 72 0 0-24c0-13.3 10.7-24 24-24l48 0c13.3 0 24 10.7 24 24l0 48c0 13.3-10.7 24-24 24l-48 0c-13.3 0-24-10.7-24-24l0-8-72 0 0 120c0 13.3 10.7 24 24 24l48 0 0-24c0-13.3 10.7-24 24-24l48 0c13.3 0 24 10.7 24 24l0 48c0 13.3-10.7 24-24 24l-48 0c-13.3 0-24-10.7-24-24l0-8-48 0c-22.1 0-40-17.9-40-40l0-128 0-120zM144 416l0 16 0 8c0 4.4 3.6 8 8 8l48 0c4.4 0 8-3.6 8-8l0-48c0-4.4-3.6-8-8-8l-48 0c-4.4 0-8 3.6-8 8l0 24zm0-136c0 4.4 3.6 8 8 8l48 0c4.4 0 8-3.6 8-8l0-48c0-4.4-3.6-8-8-8l-48 0c-4.4 0-8 3.6-8 8l0 24 0 16 0 8zM168 96c0-4.4 3.6-8 8-8l320 0c4.4 0 8 3.6 8 8s-3.6 8-8 8l-320 0c-4.4 0-8-3.6-8-8zM296 256c0-4.4 3.6-8 8-8l192 0c4.4 0 8 3.6 8 8s-3.6 8-8 8l-192 0c-4.4 0-8-3.6-8-8zm0 160c0-4.4 3.6-8 8-8l192 0c4.4 0 8 3.6 8 8s-3.6 8-8 8l-192 0c-4.4 0-8-3.6-8-8z"/></svg>

<svg xmlns="http://www.w3.org/2000/svg" viewBox="0 0 512 512"><!--! Font Awesome Pro 6.5.2 by @fontawesome - https://fontawesome.com License - https://fontawesome.com/license (Commercial License) Copyright 2024 Fonticons, Inc. --><path d="M24 64c-4.4 0-8 3.6-8 8v48c0 4.4 3.6 8 8 8H40 56 72c4.4 0 8-3.6 8-8V72c0-4.4-3.6-8-8-8H24zm16 80H24c-13.3 0-24-10.7-24-24V72C0 58.7 10.7 48 24 48H72c13.3 0 24 10.7 24 24v48c0 13.3-10.7 24-24 24H56V256h72V232c0-13.3 10.7-24 24-24h48c13.3 0 24 10.7 24 24v48c0 13.3-10.7 24-24 24H152c-13.3 0-24-10.7-24-24v-8H56V392c0 13.3 10.7 24 24 24h48V392c0-13.3 10.7-24 24-24h48c13.3 0 24 10.7 24 24v48c0 13.3-10.7 24-24 24H152c-13.3 0-24-10.7-24-24v-8H80c-22.1 0-40-17.9-40-40V264 144zM144 416v16 8c0 4.4 3.6 8 8 8h48c4.4 0 8-3.6 8-8V392c0-4.4-3.6-8-8-8H152c-4.4 0-8 3.6-8 8v24zm0-136c0 4.4 3.6 8 8 8h48c4.4 0 8-3.6 8-8V232c0-4.4-3.6-8-8-8H152c-4.4 0-8 3.6-8 8v24 16 8zM168 96c0-4.4 3.6-8 8-8H496c4.4 0 8 3.6 8 8s-3.6 8-8 8H176c-4.4 0-8-3.6-8-8zM296 256c0-4.4 3.6-8 8-8H496c4.4 0 8 3.6 8 8s-3.6 8-8 8H304c-4.4 0-8-3.6-8-8zm0 160c0-4.4 3.6-8 8-8H496c4.4 0 8 3.6 8 8s-3.6 8-8 8H304c-4.4 0-8-3.6-8-8z"/></svg>
